X:152
T:Retreat, The
M:6/8
L:1/8
B:Thompson's Compleat Collection of 200 Favourite Country Dances, vol. 2 (London, 1765)
Z:Transcribed and edited by Flynn Titford-Mock, 2007
Z:abc's:AK/Fiddler's Companion
K:D
f/e/ | d2D FED | EFE cBc | d2A GFE | FDD D2 :: A | dcd Bcd | efd cBA |
dcd efg | fdd d2f | gfg Bcd | efd cBA | d2A GFE | FDD D2 :|

